packages/core/src/svgs/tokens/branded/TENET.svg

<svg width="24" height="24" viewBox="0 0 24 24" fill="none" xmlns="http://www.w3.org/2000/svg">
<path d="M14.7796 19.461C14.4975 19.949 14.0921 20.3543 13.6038 20.636C13.1155 20.9178 12.5618 21.0661 11.9981 21.0661C11.4344 21.0661 10.8806 20.9178 10.3924 20.636C9.90411 20.3543 9.49864 19.949 9.21642 19.461L2.4219 7.6908C2.1434 7.20599 1.99787 6.65615 2.00002 6.09697C2.0022 5.5378 2.152 4.98911 2.43427 4.5064C2.71653 4.02369 3.12125 3.62409 3.60752 3.34798C4.09378 3.07188 4.64433 2.92909 5.20348 2.93404H18.7927C21.2491 2.93404 22.7931 5.57186 21.5742 7.68467L14.7796 19.4673V19.461ZM13.217 5.58436C13.109 5.352 12.9369 5.15534 12.7211 5.01752C12.5051 4.87971 12.2542 4.80648 11.9981 4.80648C11.7418 4.80648 11.4911 4.87971 11.2751 5.01752C11.0591 5.15534 10.887 5.352 10.7792 5.58436L7.76631 11.3913C7.57877 11.7663 7.57877 12.229 7.76631 12.6039L10.7792 18.4047C10.887 18.6371 11.0591 18.8337 11.2751 18.9715C11.4911 19.1093 11.7418 19.1826 11.9981 19.1826C12.2542 19.1826 12.5051 19.1093 12.7211 18.9715C12.9369 18.8337 13.109 18.6371 13.217 18.4047L16.2298 12.6039C16.4174 12.229 16.4174 11.7663 16.2298 11.3913L13.217 5.59062V5.58436Z" fill="#261C37"/>
</svg>

<svg xmlns="http://www.w3.org/2000/svg" width="24" height="24" fill="none" viewBox="0 0 24 24">
    <path fill="#261C37" d="M14.78 19.461a3.212 3.212 0 0 1-5.564 0L2.422 7.691a3.175 3.175 0 0 1 2.781-4.757h13.59c2.456 0 4 2.638 2.781 4.75L14.78 19.468zM13.217 5.584a1.346 1.346 0 0 0-2.438 0l-3.013 5.807a1.38 1.38 0 0 0 0 1.213l3.013 5.8a1.342 1.342 0 0 0 2.438 0l3.013-5.8a1.38 1.38 0 0 0 0-1.213l-3.013-5.8z"/>
</svg>
